packages/kaspersky-hexa-ui-icons/src/iconsSVGs/16x12/FlagUg.svg

<svg width="16" height="12" viewBox="0 0 16 12" fill="none" xmlns="http://www.w3.org/2000/svg">
<g clip-path="url(#clip0_41818_3923)">
<rect width="16" height="12" rx="2" fill="white"/>
<mask id="mask0_41818_3923" style="mask-type:luminance" maskUnits="userSpaceOnUse" x="0" y="0" width="16" height="12">
<rect width="16" height="12" rx="2" fill="white"/>
</mask>
<g mask="url(#mask0_41818_3923)">
<path fill-rule="evenodd" clip-rule="evenodd" d="M0 1.6H16V0H0V1.6Z" fill="#262626"/>
<path fill-rule="evenodd" clip-rule="evenodd" d="M0 7.99999H16V6.39999H0V7.99999Z" fill="#262626"/>
<path fill-rule="evenodd" clip-rule="evenodd" d="M0 6.4H16V4H0V6.4Z" fill="#ED1623"/>
<path fill-rule="evenodd" clip-rule="evenodd" d="M0 4.00001H16V1.60001H0V4.00001Z" fill="#FEE044"/>
<path fill-rule="evenodd" clip-rule="evenodd" d="M0 12H16V10.4H0V12Z" fill="#ED1623"/>
<path fill-rule="evenodd" clip-rule="evenodd" d="M0 10.4H16V8H0V10.4Z" fill="#FEE044"/>
<circle cx="7.99995" cy="6" r="2.8" fill="white"/>
<path fill-rule="evenodd" clip-rule="evenodd" d="M7.42861 4.6C7.32194 4.488 7.32194 4.312 7.42861 4.2L7.60217 4.01776C7.61343 4.00594 7.62356 3.9934 7.63323 3.98025C7.64665 3.962 7.66878 3.93301 7.69599 3.90149C7.81222 3.76691 8.23964 3.79522 8.34209 3.94056C8.3882 4.00597 8.36039 4.04325 8.32598 4.11551L8.03241 4.73201C8.0111 4.77677 8.00003 4.82573 8.00003 4.87532V4.99852C8.00003 5.12241 8.06874 5.23607 8.17842 5.29366L8.71335 5.57449C8.74553 5.59139 8.77472 5.61343 8.79979 5.63974L9.36565 6.2339C9.46093 6.33394 9.48462 6.48237 9.42523 6.6071L9.28076 6.91048C9.21426 7.05014 9.02842 7.07981 8.92173 6.96779C8.83477 6.87648 8.68911 6.87648 8.60214 6.96779L8.47294 7.10345C8.41391 7.16543 8.38099 7.24774 8.38099 7.33334V7.51917C8.38099 7.57106 8.40095 7.62096 8.43674 7.65854C8.55927 7.7872 8.46807 8 8.29039 8H8.09063C7.91295 8 7.82175 7.7872 7.94429 7.65854C7.98007 7.62096 8.00003 7.57106 8.00003 7.51917V7.46667C8.00003 7.31939 7.88064 7.2 7.73337 7.2C7.66039 7.2 7.5906 7.22991 7.54026 7.28276L7.43789 7.39025C7.32918 7.5044 7.14708 7.5044 7.03837 7.39025C6.9369 7.28371 6.9369 7.11629 7.03837 7.00975L7.15659 6.88562C7.20866 6.83095 7.28086 6.8 7.35636 6.8C7.59889 6.8 7.72339 6.50952 7.55612 6.33389L7.07612 5.82989C6.95351 5.70115 6.95351 5.49885 7.07612 5.37012L7.42861 5C7.53527 4.888 7.53527 4.712 7.42861 4.6Z" fill="#262626"/>
</g>
</g>
<defs>
<clipPath id="clip0_41818_3923">
<rect width="16" height="12" fill="white"/>
</clipPath>
</defs>
</svg>

<svg xmlns="http://www.w3.org/2000/svg" width="16" height="12" fill="none" viewBox="0 0 16 12"><g clip-path="url(#a)"><rect width="16" height="12" fill="#fff" rx="2"/><mask id="b" width="16" height="12" x="0" y="0" maskUnits="userSpaceOnUse" style="mask-type:luminance"><rect width="16" height="12" fill="#fff" rx="2"/></mask><g mask="url(#b)"><path fill="#262626" fill-rule="evenodd" d="M0 1.6h16V0H0zM0 8h16V6.4H0z" clip-rule="evenodd"/><path fill="#ed1623" fill-rule="evenodd" d="M0 6.4h16V4H0z" clip-rule="evenodd"/><path fill="#fee044" fill-rule="evenodd" d="M0 4h16V1.6H0z" clip-rule="evenodd"/><path fill="#ed1623" fill-rule="evenodd" d="M0 12h16v-1.6H0z" clip-rule="evenodd"/><path fill="#fee044" fill-rule="evenodd" d="M0 10.4h16V8H0z" clip-rule="evenodd"/><circle cx="8" cy="6" r="3" fill="#fff"/><path fill="#262626" fill-rule="evenodd" d="M7.4286 4.6a.29.29 0 0 1 0-.4l.1736-.1822a.4.4 0 0 0 .031-.0376 1.3 1.3 0 0 1 .0628-.0787c.1162-.1346.5436-.1063.646.039.0462.0655.0184.1027-.016.175l-.2936.6165A.33.33 0 0 0 8 4.8753v.1232c0 .124.0687.2376.1784.2952l.535.2808a.33.33 0 0 1 .0864.0652l.5659.5942c.0952.1.119.2485.0595.3732l-.1444.3034a.2207.2207 0 0 1-.359.0573.2207.2207 0 0 0-.3197 0l-.1292.1356a.333.333 0 0 0-.092.23v.1858c0 .0519.02.1018.0558.1393.1226.1287.0314.3415-.1463.3415h-.1998c-.1776 0-.2689-.2128-.1463-.3415A.202.202 0 0 0 8 7.5192v-.0525a.2667.2667 0 0 0-.4597-.184l-.1024.1075a.2759.2759 0 1 1-.3995-.3804l.1182-.1242A.276.276 0 0 1 7.3564 6.8c.2425 0 .367-.2905.1997-.4661l-.48-.504a.3333.3333 0 0 1 0-.4598L7.4286 5a.29.29 0 0 0 0-.4" clip-rule="evenodd"/></g></g><defs><clipPath id="a"><path fill="#fff" d="M0 0h16v12H0z"/></clipPath></defs></svg>
